svg/部分可见文件夹-无内容.svg

<svg width="544" height="544" viewBox="0 0 544 544" fill="none" xmlns="http://www.w3.org/2000/svg">
<path d="M16 98.5602V444.948C16 459.752 28.0016 471.754 42.8063 471.754H501.194C515.998 471.754 528 459.752 528 444.948V153.227C528 138.422 515.998 126.421 501.194 126.421H260.603C250.182 126.421 240.743 120.338 235.291 111.456C225.357 95.2712 207.444 71.7539 187.225 71.7539H42.7644C27.9597 71.7539 16 83.7555 16 98.5602Z" fill="#EF7F4B"/>
<path d="M528 187.273V435.947C528 450.752 515.998 462.754 501.194 462.754H42.8063C28.0016 462.754 16 450.752 16 435.947V187.273C16 172.468 27.962 160.467 42.7667 160.467H178.178C223.749 160.467 217.382 160.465 248.544 160.466C333.567 160.47 449.546 160.468 501.239 160.467C516.044 160.467 528 172.468 528 187.273Z" fill="url(#paint0_linear_2434_3326)"/>
<defs>
<linearGradient id="paint0_linear_2434_3326" x1="528" y1="160.466" x2="51.8707" y2="511.419" gradientUnits="userSpaceOnUse">
<stop offset="0.234375" stop-color="#FFB76D"/>
<stop offset="1" stop-color="#EF7F4B"/>
</linearGradient>
</defs>
</svg>

<svg fill="none" viewBox="0 0 544 544"><path fill="#EF7F4B" d="M16 98.56v346.388c0 14.804 12.002 26.806 26.806 26.806h458.388c14.804 0 26.806-12.002 26.806-26.806V153.227c0-14.805-12.002-26.806-26.806-26.806H260.603c-10.421 0-19.86-6.083-25.312-14.965-9.934-16.185-27.847-39.702-48.066-39.702H42.765C27.96 71.754 16 83.755 16 98.56"/><path fill="url(#a)" d="M528 187.273v248.674c0 14.805-12.002 26.807-26.806 26.807H42.806C28.002 462.754 16 450.752 16 435.947V187.273c0-14.805 11.962-26.806 26.767-26.806h135.411c45.571 0 39.204-.002 70.366-.001 85.023.004 201.002.002 252.695.001 14.805 0 26.761 12.001 26.761 26.806"/><defs><linearGradient id="a" x1="528" x2="51.871" y1="160.466" y2="511.419" gradientUnits="userSpaceOnUse"><stop offset=".234" stop-color="#FFB76D"/><stop offset="1" stop-color="#EF7F4B"/></linearGradient></defs></svg>
